X:1
T:Lymington, 76.76 D
T:Robert Jackson (1842-1914)
T:Lymington, 76.76 D
T:Public Domain
C:Robert Jackson (1842-1914)
Z:Public Domain
%%score ( 1 2 ) ( 3 4 )
L:1/8
M:4/4
K:F
V:1 treble 
V:2 treble 
V:3 bass 
V:4 bass 
V:1
 C2 | F2 (FG) A2 F2 | [Gc]4 [FA]2 F2 | [Fd]2 [Fd]2 [Fc]2 [EB]2 | [FA]6 C2 | F2 (FG) A2 F2 | %6
 [FB]4 [Fd]2 [Fd]2 | [Fc]2 (cd) [Ge]2 [Fd]2 | [Ec]6 [Ec]2 | [EG]2 [FA]2 [GB]2 [EG]2 | %10
 (A3 d) [Fc]2 [Fc]2 | [EG]2 [FA]2 [GB]2 [Gd]2 | [Gc]6 [Gc]2 | [Ff]2 [Ff]2 [Fe]2 [Fd]2 | %14
 [Ec]4 [FA]2 [FB]2 | [FA]3 F [EA]2 [EG]2 | F6 |] %17
V:2
 C2 | F2 A2 F2 x2 | x6 F2 | x8 | x6 C2 | F2 A2 F2 x2 | x8 | x2 A2 x4 | x8 | x8 | F4 x4 | x8 | x8 | %13
 x8 | x8 | x3 F x4 | F6 |] %17
V:3
 C,2 | F,2 (F,G,) A,2 F,2 | [E,C]4 [F,C]2 [A,C]2 | B,2 B,2 [A,C]2 [G,C]2 | [F,C]6 [C,C]2 | %5
 F,2 (F,G,) A,2 F,2 | [D,B,]4 [B,,B,]2 B,2 | [A,C]2 [F,C]2 [G,C]2 [G,=B,]2 | [C,C]6 [C,C]2 | %9
 [C,B,]2 [C,A,]2 [C,G,]2 [C,C]2 | (C3 B,) [F,A,]2 [A,C]2 | [B,C]2 [A,C]2 [G,D]2 [F,B,]2 | %12
 [E,B,]6 [E,G,]2 | [D,A,]2 [D,A,]2 [A,,C]2 [B,,B,]2 | [C,G,]4 [D,F,]2 [B,,D]2 | %15
 [C,C]3 [C,A,] [C,C]2 [C,B,]2 | [F,A,]6 |] %17
V:4
 C,2 | F,2 A,2 F,2 x2 | x8 | B,2 B,2 x4 | x8 | F,2 A,2 F,2 x2 | x6 B,2 | x8 | x8 | x8 | F,4 x4 | %11
 x8 | x8 | x8 | x8 | x8 | x6 |] %17

